svg/UnitedNationsOCHA-Humanitarian/food_NFI_relief_goods_icon.svg

<svg xmlns="http://www.w3.org/2000/svg" viewBox="0 0 32 32" enable-background="new 0 0 32 32"><path fill="#407cca" d="m24.08 12.584l3.916-2.175-.864-.467-7.146-3.894-3.938 2.148-4.045-2.202-8.01 4.356.852.479 3.122 1.734-.038.019h-.003v.003l-3.864 2.105 3.864 2.077v5.22l8.07 4.02 8.07-4.02v-5.204l3.896-2.093-3.878-2.106m-4.095-5.306l5.769 3.139-2.792 1.553-5.835-3.133 2.858-1.559m-13.752 3.083l5.769-3.139 2.859 1.557-5.837 3.136-2.791-1.554m.097 4.325l2.858-1.561 5.826 3.151-2.85 1.541-5.834-3.131m2.68 6.631v-3.967l3.164 1.7 3.281-1.821v7.298l-6.445-3.21m13.973 0l-6.445 3.208v-7.31l3.3 1.834 3.146-1.688v3.956zm2.702-6.634l-5.836 3.135-2.802-1.541 5.774-3.151 2.864 1.557"/></svg>

<?xml version="1.0" encoding="utf-8"?>
<!-- Generator: Adobe Illustrator 16.0.3, SVG Export Plug-In . SVG Version: 6.00 Build 0)  -->
<!DOCTYPE svg PUBLIC "-//W3C//DTD SVG 1.1//EN" "http://www.w3.org/Graphics/SVG/1.1/DTD/svg11.dtd">
<svg version="1.1" id="Layer_1" xmlns="http://www.w3.org/2000/svg" xmlns:xlink="http://www.w3.org/1999/xlink" x="0px" y="0px"
	 width="32px" height="32px" viewBox="0 0 32 32" enable-background="new 0 0 32 32" xml:space="preserve">
<path fill="#407CCA" d="M24.084,12.584L28,10.409l-0.864-0.467l-7.146-3.894l-3.938,2.148l-4.045-2.202L4,10.35l0.852,0.479
	l3.122,1.734l-0.038,0.019H7.933v0.003L4.069,14.69l3.864,2.077v5.22l8.066,4.018l8.067-4.018v-5.204l3.896-2.093L24.084,12.584z
	 M19.989,7.278l5.769,3.139l-2.792,1.553l-5.835-3.133L19.989,7.278z M6.237,10.361l5.769-3.139l2.859,1.557l-5.837,3.136
	L6.237,10.361z M6.334,14.686l2.858-1.561l5.826,3.151l-2.85,1.541L6.334,14.686z M9.014,21.317V17.35l3.164,1.7l3.281-1.821v7.298
	L9.014,21.317z M22.987,21.317l-6.445,3.208v-7.31l3.3,1.834l3.146-1.688V21.317z M25.689,14.683l-5.836,3.135l-2.802-1.541
	l5.774-3.151L25.689,14.683z"/>
</svg>
